cssgg/abstract.svg

<svg
  width="24"
  height="24"
  viewBox="0 0 24 24"
  fill="none"
  xmlns="http://www.w3.org/2000/svg"
>
  <path d="M5 5H19V19H16L16 8H5V5Z" fill="currentColor" />
  <path
    fill-rule="evenodd"
    clip-rule="evenodd"
    d="M10 19C12.7614 19 15 16.7614 15 14C15 11.2386 12.7614 9 10 9C7.23858 9 5 11.2386 5 14C5 16.7614 7.23858 19 10 19ZM10 16C11.1046 16 12 15.1046 12 14C12 12.8954 11.1046 12 10 12C8.89543 12 8 12.8954 8 14C8 15.1046 8.89543 16 10 16Z"
    fill="currentColor"
  />
</svg>

<svg viewBox="0 0 24 24" xmlns="http://www.w3.org/2000/svg"><g><path d="M5 5h14v14h-3V8H5V5Z"/><path fill-rule="evenodd" d="M10 19c2.76 0 5-2.24 5-5 0-2.77-2.24-5-5-5 -2.77 0-5 2.23-5 5 0 2.76 2.23 5 5 5Zm0-3c1.1 0 2-.9 2-2 0-1.11-.9-2-2-2 -1.11 0-2 .89-2 2 0 1.1.89 2 2 2Z"/></g></svg>
